!!!OTL: 2045. Marienlied.
!!!ARE: Europa, Mitteleuropa, Deutschland
!!!SCT: E2045
!!!TXL: @@DE
!!!YEM: Copyright 1995, estate of Helmut Schaffrath.
**kern	**text
*ICvox	*
*M6/4	*
*k[]	*
*C:	*
!LO:TX:a:t=Mainʒer Cantual 1605 S. 189. Hildesheimer Cantual 1619 S. 16, 2.	!
{4cc	Jch
=1	=1
2a	weiß
4a	ein
2b	Ma-
4b	-get
=2	=2
2.cc	ſcho-
2cc}	-ne,
{4cc	die
=3	=3
2dd	trägt
4cc	den
2cc	höch-
4b	-ſten
=4	=4
(2.a	Preis.
2g)}	.
{4g	Wer
=5	=5
2g	ringt
4a	nach
2b	ih-
4b	-rem
=6	=6
2.cc	Loh-
2cc}	-ne,
{4cc	ſie
=7	=7
2cc	iſt
4g	bei
2g	Dien-
4f	-ſten
=8	=8
[>2.e	weiſ'.
4e]	.
4r}	.
{4e	Bei
=9	=9
2e	ihr
4e	ſind
2g	and-
4f	-re
=10	=10
2.e	Frau-
2c}	-en,
{4c	wie
=11	=11
2g	Blüm-
4g	-lein
2a	auf
4b	der
=12	=12
2.cc	Au-
2ee}	-en,
{4dd	ſie
=13	=13
2cc	iſt
4cc	ein
2a	Li-
4b	-lien-
=14	=14
[>2.cc	-reis.
4cc]	.
4r}	.
==	==
!!!AGN: geistlich, Marien - Lied
!!!ONB: ESAC (Essen Associative Code) Database: ERK3
!!!AMT: compound duple
!!!AIN: vox
!!!EED: Helmut Schaffrath
!!!EEV: 1.0
!!!RDF**kern: >= above
!!!GTL: 4. Katholische Lieder: b) Marienlieder (Rufe und Legenden.)
!!!URL-scan: https://rosdok.uni-rostock.de/mcrviewer/recordIdentifier/rosdok_ppn745177999/iview2/phys_0749.iview2?x=145.8077540840577&y=2045.445186147932&scale=0.7014306698522891&rotation=0&layout=singlePageLayout
!!!ENC: Anna Maria Matuszewska
!!!EEV: 2025/13/01
*-	*-
